packages/tokens/icons/saml/size56Px.svg

<svg viewBox="0 0 56 56" fill="none" xmlns="http://www.w3.org/2000/svg" width="1em" height="1em"><path d="M49 40.7788H49.5C49.5 40.6423 49.4442 40.5117 49.3455 40.4174L49 40.7788ZM49 40.7788L49.5 40.7789V40.7791V40.7795V40.7799V40.7806V40.7813V40.7822V40.7832V40.7843V40.7856V40.787V40.7886V40.7903V40.7921V40.794V40.7961V40.7983V40.8006V40.803V40.8056V40.8083V40.8111V40.8141V40.8172V40.8204V40.8237V40.8272V40.8308V40.8345V40.8383V40.8422V40.8463V40.8505V40.8548V40.8592V40.8638V40.8685V40.8732V40.8781V40.8832V40.8883V40.8936V40.8989V40.9044V40.91V40.9157V40.9215V40.9275V40.9335V40.9397V40.946V40.9524V40.9589V40.9655V40.9722V40.979V40.9859V40.993V41.0001V41.0074V41.0147V41.0222V41.0298V41.0375V41.0452V41.0531V41.0611V41.0692V41.0774V41.0857V41.0941V41.1026V41.1112V41.1199V41.1287V41.1376V41.1466V41.1557V41.1649V41.1742V41.1836V41.193V41.2026V41.2123V41.222V41.2319V41.2418V41.2519V41.262V41.2722V41.2826V41.293V41.3035V41.314V41.3247V41.3355V41.3463V41.3573V41.3683V41.3794V41.3906V41.4019V41.4133V41.4247V41.4362V41.4479V41.4596V41.4713V41.4832V41.4952V41.5072V41.5193V41.5315V41.5437V41.5561V41.5685V41.581V41.5936V41.6062V41.619V41.6318V41.6447V41.6576V41.6707V41.6838V41.6969V41.7102V41.7235V41.7369V41.7504V41.7639V41.7775V41.7912V41.8049V41.8187V41.8326V41.8465V41.8605V41.8746V41.8888V41.903V41.9173V41.9316V41.946V41.9605V41.975V41.9896V42.0042V42.0189V42.0337V42.0486V42.0634V42.0784V42.0934V42.1085V42.1236V42.1388V42.154V42.1693V42.1847V42.2001V42.2156V42.2311V42.2466V42.2623V42.2779V42.2937V42.3094V42.3253V42.3411V42.3571V42.3731V42.3891V42.4052V42.4213V42.4374V42.4537V42.4699V42.4862V42.5026V42.519V42.5354V42.5519V42.5685V42.585V42.6016V42.6183V42.635V42.6517V42.6685V42.6853V42.7022V42.7191V42.736V42.753V42.77V42.787V42.8041V42.8212V42.8384V42.8556V42.8728V42.89V42.9073V42.9247V42.942V42.9594V42.9768V42.9942V43.0117V43.0292V43.0467V43.0643V43.0819V43.0995V43.1171V43.1348V43.1525V43.1702V43.188V43.2057V43.2235V43.2413V43.2592V43.277V43.2949V43.3128V43.3307V43.3487V43.3666V43.3846V43.4026V43.4206V43.4387V43.4567V43.4748V43.4929V43.511V43.5291V43.5472V43.5653V43.5835V43.6017V43.6198V43.638V43.6562V43.6745V43.6927V43.7109V43.7292V43.7474V43.7657V43.7839V43.8022V43.8205V43.8388V43.8571V43.8754V43.8937V43.912V43.9303V43.9486V43.9669V43.9853V44.0036V44.0219V44.0402V44.0585V44.0769V44.0952V44.1135V44.1318V44.1501V44.1684V44.1867V44.2051V44.2234V44.2416V44.2599V44.2782V44.2965V44.3148V44.333V44.3513V44.3695V44.3877V44.406V44.4242V44.4424V44.4606V44.4788V44.4969V44.5151V44.5332V44.5514V44.5695V44.5876V44.6057V44.6237V44.6418V44.6598V44.6778V44.6958V44.7138V44.7318V44.7497V44.7676V44.7855V44.8034V44.8213V44.8391V44.8569V44.8747V44.8925V44.9102V44.9279V44.9456V44.9633V44.9809V44.9985V45.0161V45.0337V45.0512V45.0687V45.0862V45.1036V45.121V45.1384V45.1558V45.1731V45.1904V45.2076V45.2248V45.242V45.2592V45.2763V45.2934V45.3104V45.3274V45.3444V45.3613V45.3782V45.3951V45.4119V45.4287V45.4454V45.4621V45.4788V45.4954V45.512V45.5285V45.545V45.5614V45.5778V45.5942V45.6105V45.6268V45.643V45.6591V45.6753V45.6913V45.7074V45.7234V45.7393V45.7552V45.771V45.7868V45.8025V45.8182V45.8338V45.8494V45.8649V45.8803V45.8957V45.9111V45.9264V45.9416V45.9568V45.9719V45.987V46.002V46.017V46.0319V46.0467V46.0615V46.0762V46.0908V46.1054V46.12V46.1344V46.1488V46.1632V46.1774V46.1916V46.2058V46.2199V46.2339V46.2478V46.2617V46.2755V46.2893V46.3029V46.3165V46.3301V46.3435V46.3569V46.3702V46.3835V46.3967V46.4098V46.4228V46.4357V46.4486V46.4614V46.4742V46.4868V46.4994V46.5119V46.5243V46.5367V46.5489V46.5611V46.5732V46.5853V46.5972V46.6091V46.6208V46.6326V46.6442V46.6557V46.6672V46.6785V46.6898V46.701V46.7121V46.7231V46.7341V46.7449V46.7557V46.7664V46.777V46.7874V46.7979V46.8082V46.8184V46.8285V46.8386V46.8485V46.8584V46.8681V46.8778V46.8874V46.8969V46.9062V46.9155V46.9247V46.9338V46.9428V46.9517V46.9605V46.9692V46.9778V46.9863V46.9947V47.003V47.0112V47.0193V47.0273V47.0351V47.0429V47.0506V47.0582V47.0656V47.073V47.0803V47.0874V47.0945V47.1014V47.1082V47.1149V47.1215V47.128V47.1344V47.1407V47.1469V47.1529V47.1589V47.1647V47.1704V47.176V47.1815V47.1868V47.1921V47.1972V47.2022V47.2071V47.2119V47.2166V47.2211V47.2256V47.2299V47.2341V47.2381V47.2421V47.2459V47.2496V47.2532V47.2567V47.26V47.2632V47.2663V47.2692C49.5 47.8645 49.2074 48.418 48.8127 48.8127C48.418 49.2074 47.8645 49.5 47.2692 49.5H47.267H47.2646H47.262H47.2594H47.2566H47.2537H47.2506H47.2474H47.2441H47.2407H47.2372H47.2335H47.2297H47.2257H47.2217H47.2175H47.2132H47.2088H47.2043H47.1996H47.1948H47.1899H47.1849H47.1797H47.1745H47.1691H47.1636H47.158H47.1522H47.1464H47.1404H47.1344H47.1282H47.1219H47.1154H47.1089H47.1023H47.0955H47.0886H47.0817H47.0746H47.0674H47.0601H47.0527H47.0451H47.0375H47.0298H47.0219H47.014H47.0059H46.9977H46.9895H46.9811H46.9726H46.9641H46.9554H46.9466H46.9377H46.9288H46.9197H46.9105H46.9012H46.8918H46.8824H46.8728H46.8631H46.8534H46.8435H46.8335H46.8235H46.8133H46.8031H46.7928H46.7823H46.7718H46.7612H46.7505H46.7397H46.7288H46.7179H46.7068H46.6957H46.6844H46.6731H46.6617H46.6502H46.6386H46.6269H46.6152H46.6034H46.5914H46.5794H46.5673H46.5552H46.5429H46.5306H46.5182H46.5057H46.4931H46.4805H46.4678H46.4549H46.4421H46.4291H46.4161H46.403H46.3898H46.3765H46.3632H46.3498H46.3363H46.3227H46.3091H46.2954H46.2816H46.2678H46.2539H46.2399H46.2259H46.2118H46.1976H46.1833H46.169H46.1546H46.1402H46.1257H46.1111H46.0964H46.0817H46.067H46.0521H46.0372H46.0223H46.0073H45.9922H45.9771H45.9619H45.9466H45.9313H45.9159H45.9005H45.885H45.8695H45.8539H45.8382H45.8225H45.8068H45.7909H45.7751H45.7592H45.7432H45.7272H45.7111H45.695H45.6788H45.6626H45.6463H45.63H45.6136H45.5972H45.5808H45.5643H45.5477H45.5311H45.5145H45.4978H45.4811H45.4643H45.4475H45.4306H45.4137H45.3968H45.3798H45.3628H45.3458H45.3287H45.3115H45.2944H45.2772H45.2599H45.2426H45.2253H45.208H45.1906H45.1732H45.1557H45.1382H45.1207H45.1032H45.0856H45.068H45.0503H45.0327H45.015H44.9972H44.9795H44.9617H44.9439H44.9261H44.9082H44.8903H44.8724H44.8545H44.8365H44.8185H44.8005H44.7825H44.7645H44.7464H44.7283H44.7102H44.692H44.6739H44.6557H44.6375H44.6193H44.6011H44.5829H44.5646H44.5464H44.5281H44.5098H44.4915H44.4731H44.4548H44.4365H44.4181H44.3997H44.3813H44.363H44.3446H44.3261H44.3077H44.2893H44.2709H44.2524H44.234H44.2155H44.1971H44.1786H44.1601H44.1417H44.1232H44.1047H44.0862H44.0678H44.0493H44.0308H44.0123H43.9938H43.9754H43.9569H43.9384H43.9199H43.9015H43.883H43.8645H43.8461H43.8276H43.8092H43.7907H43.7723H43.7539H43.7355H43.7171H43.6987H43.6803H43.6619H43.6435H43.6252H43.6068H43.5885H43.5702H43.5519H43.5336H43.5153H43.497H43.4788H43.4605H43.4423H43.4241H43.4059H43.3878H43.3696H43.3515H43.3334H43.3153H43.2972H43.2792H43.2612H43.2432H43.2252H43.2072H43.1893H43.1714H43.1535H43.1357H43.1179H43.1H43.0823H43.0645H43.0468H43.0291H43.0115H42.9938H42.9762H42.9586H42.9411H42.9236H42.9061H42.8887H42.8713H42.8539H42.8366H42.8193H42.802H42.7848H42.7676H42.7504H42.7333H42.7162H42.6991H42.6821H42.6652H42.6482H42.6314H42.6145H42.5977H42.581H42.5642H42.5476H42.5309H42.5144H42.4978H42.4813H42.4649H42.4485H42.4321H42.4158H42.3996H42.3833H42.3672H42.3511H42.335H42.319H42.3031H42.2872H42.2713H42.2555H42.2398H42.2241H42.2084H42.1928H42.1773H42.1618H42.1464H42.1311H42.1158H42.1005H42.0854H42.0702H42.0552H42.0402H42.0252H42.0104H41.9955H41.9808H41.9661H41.9515H41.9369H41.9224H41.908H41.8936H41.8793H41.8651H41.8509H41.8368H41.8228H41.8088H41.7949H41.7811H41.7674H41.7537H41.7401H41.7265H41.7131H41.6997H41.6864H41.6731H41.66H41.6469H41.6339H41.6209H41.608H41.5953H41.5826H41.5699H41.5574H41.5449H41.5325H41.5202H41.508H41.4958H41.4838H41.4718H41.4599H41.4481H41.4363H41.4247H41.4131H41.4016H41.3903H41.379H41.3677H41.3566H41.3456H41.3346H41.3238H41.313H41.3023H41.2917H41.2812H41.2708H41.2605H41.2503H41.2402H41.2302H41.2202H41.2104H41.2006H41.191H41.1815H41.172H41.1627H41.1534H41.1442H41.1352H41.1262H41.1174H41.1086H41.1H41.0914H41.083H41.0746H41.0664H41.0583H41.0502H41.0423H41.0345H41.0268H41.0192H41.0117H41.0043H40.997H40.9898H40.9828H40.9758H40.969H40.9622H40.9556H40.9491H40.9427H40.9365H40.9303H40.9242H40.9183H40.9125H40.9068H40.9012H40.8957H40.8904H40.8852H40.88H40.875H40.8702H40.8654H40.8608H40.8563H40.8519H40.8476H40.8435H40.8394H40.8355H40.8318H40.8281H40.8246H40.8212H40.8179H40.8148H40.8118H40.8089H40.8061H40.8035H40.801H40.7986H40.7964H40.7943H40.7923H40.7905H40.7888H40.7872H40.7858H40.7845H40.7833H40.7822H40.7813H40.7806H40.78H40.7795H40.7791H40.7789L40.7788 49M49 40.7788C49.3455 40.4174 49.3454 40.4173 49.3453 40.4173L49.3449 40.4169L49.3434 40.4154L49.3372 40.4095L49.3126 40.386L49.216 40.2936L48.8443 39.938C48.5214 39.6289 48.0538 39.1812 47.4753 38.6267C46.3183 37.5176 44.7178 35.9812 42.9434 34.272C39.3939 30.8528 35.1518 26.7447 32.3735 23.982C31.2722 22.8869 31.3203 21.5311 31.3737 20.4162C31.3782 20.3225 31.3799 20.2315 31.3813 20.1523C31.3815 20.14 31.3818 20.1281 31.382 20.1164C31.3837 20.0251 31.3858 19.9526 31.3909 19.8884C31.7588 15.3197 30.5932 11.2225 28.1495 8.25909C25.7004 5.28901 22.001 3.5 17.3972 3.5C8.77793 3.5 3.5 10.6607 3.5 16.9914C3.5 20.0922 4.15854 23.999 6.4809 27.0947C8.82443 30.2186 12.8034 32.4385 19.266 32.2477C19.5676 32.2474 19.8811 32.233 20.1893 32.2188L20.1956 32.2185C20.4893 32.205 20.7942 32.1733 21.0873 32.1429C21.1382 32.1377 21.1886 32.1324 21.2386 32.1273C21.5847 32.0921 21.9169 32.0623 22.241 32.0604C22.8857 32.0568 23.4494 32.1648 23.9335 32.5258C23.932 32.5247 23.9356 32.5273 23.9451 32.5357C23.9503 32.5404 23.9566 32.5461 23.964 32.5531C23.9693 32.5581 23.9752 32.5637 23.9817 32.57C24.0127 32.6004 24.052 32.641 24.0998 32.6928C24.1957 32.7963 24.3159 32.9333 24.459 33.0998C24.6173 33.2841 24.796 33.4957 24.9937 33.7299C25.1565 33.9228 25.3323 34.1309 25.5201 34.3515C26.3403 35.3152 27.3584 36.4789 28.3212 37.3829C28.5743 37.6204 28.9072 37.6868 29.2336 37.6694C29.5574 37.6522 29.9313 37.5513 30.3513 37.3857C30.7761 37.2183 31.1671 37.0651 31.4837 36.9813C31.6124 36.9473 31.7095 36.9302 31.7785 36.9249C31.7798 36.9455 31.78 36.9719 31.778 37.0052C31.7682 37.1684 31.7077 37.422 31.5582 37.7875L31.5505 37.8062C31.3938 38.1891 31.2218 38.6096 31.1217 38.9661C31.0711 39.1463 31.0295 39.3415 31.027 39.5255C31.0246 39.6974 31.0553 39.9653 31.2669 40.1662C31.7841 40.6574 32.3087 41.1565 32.8321 41.6552C33.0736 41.8853 33.3874 41.8547 33.5409 41.8267C33.7241 41.7932 33.9195 41.7183 34.1019 41.636C34.4659 41.4718 34.9001 41.2209 35.3038 40.9875L35.32 40.9782C35.7059 40.7551 35.9578 40.6732 36.1069 40.6539C36.1528 40.648 36.1832 40.6484 36.2025 40.6505C36.2039 40.6707 36.2039 40.7021 36.1989 40.7484C36.1802 40.9206 36.1008 41.2005 35.91 41.6408C35.8229 41.8418 35.7252 42.0267 35.626 42.2102C35.6159 42.229 35.6056 42.2479 35.5953 42.267C35.5089 42.4266 35.4171 42.596 35.3461 42.7573C35.2662 42.9389 35.1924 43.153 35.1846 43.3855C35.1763 43.6341 35.2445 43.8754 35.4024 44.0975C35.5222 44.2659 35.9126 44.6893 36.3816 45.1855C36.8673 45.6995 37.4784 46.3338 38.0765 46.9503C38.6749 47.5671 39.2614 48.1672 39.6982 48.613C39.9166 48.8359 40.0977 49.0203 40.2241 49.149L40.3708 49.2982L40.4093 49.3374L40.4192 49.3474L40.4217 49.35L40.4224 49.3506L40.4225 49.3508L40.7788 49M40.7788 49V49.5C40.6449 49.5 40.5166 49.4463 40.4226 49.3508L40.7788 49ZM36.2305 40.6576C36.2302 40.6577 36.228 40.657 36.2246 40.6547C36.2292 40.6562 36.231 40.6574 36.2305 40.6576ZM36.1991 40.6256C36.1971 40.6217 36.1965 40.6192 36.1967 40.6189C36.1969 40.6187 36.1979 40.6207 36.1991 40.6256ZM31.8616 36.9255C31.8615 36.9256 31.8601 36.9254 31.8576 36.9248C31.8604 36.9252 31.8617 36.9255 31.8616 36.9255ZM31.768 36.8633C31.7665 36.8609 31.766 36.8596 31.7661 36.8595C31.7662 36.8594 31.7669 36.8605 31.768 36.8633ZM16.8972 13.5192C16.8972 15.3061 15.4397 16.7594 13.6359 16.7594C11.8321 16.7594 10.3746 15.3061 10.3746 13.5192C10.3746 11.7324 11.8321 10.2791 13.6359 10.2791C15.4397 10.2791 16.8972 11.7324 16.8972 13.5192Z" stroke="currentColor" stroke-linecap="round" stroke-linejoin="round"/></svg>

<svg xmlns="http://www.w3.org/2000/svg" fill="none" viewBox="0 0 56 56" width="1em" height="1em"><path stroke="currentColor" stroke-linecap="round" stroke-linejoin="round" d="M49 40.779h.5a.5.5 0 0 0-.154-.362L49 40.78Zm0 0h.5v6.49c0 .596-.293 1.149-.687 1.544-.395.394-.949.687-1.544.687h-6.485 0-.002 0-.002 0-.001V49M49 40.779l.345-.362h0l-.002-.002-.006-.005-.024-.024-.097-.092-.372-.356a2838.394 2838.394 0 0 1-5.9-5.666c-3.55-3.42-7.792-7.527-10.57-10.29-1.102-1.095-1.054-2.45-1-3.566a8.65 8.65 0 0 0 .007-.264l.001-.036c.002-.09.004-.163.009-.228.368-4.568-.798-8.666-3.241-11.629C25.7 5.29 22 3.5 17.396 3.5 8.777 3.5 3.5 10.66 3.5 16.991c0 3.101.659 7.008 2.98 10.104 2.344 3.124 6.323 5.343 12.786 5.153.302 0 .615-.015.923-.03h.007c.293-.013.598-.045.891-.075l.152-.016c.346-.035.678-.065 1.002-.067.645-.003 1.208.105 1.692.466a1.08 1.08 0 0 1 .048.044c.032.03.071.071.119.123.096.103.216.24.359.407.158.184.337.396.535.63l.526.622c.82.963 1.838 2.127 2.801 3.03.253.238.586.305.913.287.323-.017.697-.118 1.117-.283.425-.168.816-.32 1.133-.405.128-.034.225-.05.294-.056a.659.659 0 0 1 0 .08c-.01.163-.07.417-.22.782l-.008.02c-.156.382-.328.803-.428 1.16-.05.18-.093.375-.095.559-.002.171.028.44.24.64.517.491 1.042.99 1.565 1.49.242.23.555.199.709.17.183-.033.379-.108.56-.19.365-.164.8-.415 1.203-.649l.016-.009c.386-.223.638-.305.787-.324a.415.415 0 0 1 .096-.004.566.566 0 0 1-.004.098c-.019.173-.098.453-.289.893a7.243 7.243 0 0 1-.284.57l-.03.056c-.087.16-.179.329-.25.49-.08.182-.154.396-.161.629-.009.248.06.49.217.711.12.169.51.592.98 1.088a197.79 197.79 0 0 0 1.695 1.765 481.798 481.798 0 0 0 2.147 2.199l.147.15.038.038.01.01.003.003h0l.357-.35m0 0v.5a.5.5 0 0 1-.356-.15l.356-.35Zm-4.549-8.342-.005-.003c.004.001.006.002.005.003Zm-.03-.032c-.003-.004-.004-.007-.003-.007l.002.007Zm-4.338-3.7-.004-.001h.004Zm-.094-.063-.002-.004.002.004ZM16.898 13.52a3.25 3.25 0 0 1-3.262 3.24 3.25 3.25 0 0 1-3.261-3.24 3.25 3.25 0 0 1 3.26-3.24c1.805 0 3.262 1.453 3.262 3.24Z"/></svg>
